src/lib/packages/icons/src/assets/filled/baseball-bat-ball.svg

<svg width="24" height="24" viewBox="0 0 24 24" fill="none" xmlns="http://www.w3.org/2000/svg">
<path d="M6.21996 19.21L6.17998 19.17C6.56998 19.6 6.57001 20.27 6.15001 20.68C5.72001 21.11 5.02997 21.11 4.59997 20.68L3.32 19.4C2.89 18.97 2.89 18.28 3.32 17.85C3.74 17.43 4.40001 17.43 4.83001 17.82L4.78997 17.78L7.74999 14.27C7.85999 14.14 8.06999 14.13 8.18999 14.25L9.74999 15.81C9.86999 15.93 9.86997 16.14 9.72997 16.25L6.21996 19.21ZM20.25 3.75C19.18 2.68 17.41 2.75999 16.45 3.92999L9.10998 12.65C9.00998 12.77 9.02 12.95 9.13 13.06L10.95 14.88C11.06 14.99 11.24 15 11.36 14.9L20.08 7.56C21.25 6.59 21.33 4.82999 20.26 3.75999L20.25 3.75ZM6.49999 2.5C4.84999 2.5 3.49999 3.85 3.49999 5.5C3.49999 7.15 4.84999 8.5 6.49999 8.5C8.14999 8.5 9.49999 7.15 9.49999 5.5C9.49999 3.85 8.14999 2.5 6.49999 2.5Z" fill="currentColor"/>
</svg>

<svg xmlns="http://www.w3.org/2000/svg" width="24" height="24" fill="none"><path fill="currentColor" d="m6.22 19.21-.04-.04c.39.43.39 1.1-.03 1.51-.43.43-1.12.43-1.55 0L3.32 19.4a1.092 1.092 0 0 1 1.51-1.58l-.04-.04 2.96-3.51c.11-.13.32-.14.44-.02l1.56 1.56c.12.12.12.33-.02.44l-3.51 2.96ZM20.25 3.75a2.572 2.572 0 0 0-3.8.18l-7.34 8.72c-.1.12-.09.3.02.41l1.82 1.82c.11.11.29.12.41.02l8.72-7.34c1.17-.97 1.25-2.73.18-3.8l-.01-.01ZM6.5 2.5c-1.65 0-3 1.35-3 3s1.35 3 3 3 3-1.35 3-3-1.35-3-3-3Z"/></svg>
